Numix/22/actions/chronometer.svg

<?xml version="1.0" encoding="UTF-8" standalone="no"?>
<svg
   xmlns:dc="http://purl.org/dc/elements/1.1/"
   xmlns:cc="http://creativecommons.org/ns#"
   xmlns:rdf="http://www.w3.org/1999/02/22-rdf-syntax-ns#"
   xmlns:svg="http://www.w3.org/2000/svg"
   xmlns="http://www.w3.org/2000/svg"
   xmlns:sodipodi="http://sodipodi.sourceforge.net/DTD/sodipodi-0.dtd"
   xmlns:inkscape="http://www.inkscape.org/namespaces/inkscape"
   width="22"
   height="22"
   viewBox="0 0 22 22"
   id="svg2"
   version="1.1"
   inkscape:version="0.91 r13725"
   sodipodi:docname="chronometer.svg">
  <metadata
     id="metadata16">
    <rdf:RDF>
      <cc:Work
         rdf:about="">
        <dc:format>image/svg+xml</dc:format>
        <dc:type
           rdf:resource="http://purl.org/dc/dcmitype/StillImage" />
        <dc:title />
      </cc:Work>
    </rdf:RDF>
  </metadata>
  <defs
     id="defs14" />
  <sodipodi:namedview
     pagecolor="#ffffff"
     bordercolor="#666666"
     borderopacity="1"
     objecttolerance="10"
     gridtolerance="10"
     guidetolerance="10"
     inkscape:pageopacity="0"
     inkscape:pageshadow="2"
     inkscape:window-width="1366"
     inkscape:window-height="704"
     id="namedview12"
     showgrid="false"
     inkscape:zoom="11.91033"
     inkscape:cx="-20.702165"
     inkscape:cy="11"
     inkscape:window-x="0"
     inkscape:window-y="27"
     inkscape:window-maximized="1"
     inkscape:current-layer="svg2">
    <inkscape:grid
       type="xygrid"
       id="grid4144" />
  </sodipodi:namedview>
  <path
     style="fill:#ffffff;fill-rule:evenodd"
     d="m 20,12.001303 a 9,9.000039 0 0 1 -18,0 9,9.000039 0 1 1 18,0 z"
     id="path4"
     inkscape:connector-curvature="0" />
  <path
     style="fill:#268bd2"
     d="M 10.984375,5.4840493 C 10.433594,5.4918593 9.992188,5.9488933 10,6.4996743 l 0,5.4999997 c 0,0.234375 0.08203,0.460938 0.234375,0.640625 l 2.5,3 c 0.222656,0.300781 0.589844,0.449219 0.957031,0.394531 0.367188,-0.05859 0.671875,-0.3125 0.792969,-0.664062 0.121094,-0.351563 0.03516,-0.742188 -0.21875,-1.011719 L 12,11.640299 12,6.4996743 c 0.0039,-0.269531 -0.101562,-0.53125 -0.292969,-0.722656 -0.191406,-0.191406 -0.453125,-0.296875 -0.722656,-0.292969 z"
     id="path6"
     inkscape:connector-curvature="0" />
  <path
     id="path4138"
     d="M 11,2.0000002 C 5.488281,2.0000002 1,6.4882812 1,12 1,17.511719 5.488281,22 11,22 16.511719,22 21,17.511719 21,12 21,6.4882812 16.511719,2.0000002 11,2.0000002 Z m 0,2 c 4.429688,0 8,3.570312 8,7.9999998 0,4.429688 -3.570312,8 -8,8 C 6.570312,20 3,16.429688 3,12 3,7.5703122 6.570312,4.0000002 11,4.0000002 Z"
     style="fill:#aaaaaa"
     inkscape:connector-curvature="0" />
  <path
     sodipodi:nodetypes="sccccss"
     inkscape:connector-curvature="0"
     id="path4151"
     d="m 1.807612,4.2218256 c -0.391737,0.3917372 -0.391737,1.0224764 0,1.4142136 0.471404,0.4714045 0.942809,0.942809 1.414213,1.4142135 C 4.400337,5.8717412 5.578848,4.6932304 6.757359,3.5147188 6.285955,3.0433143 5.81455,2.5719098 5.343146,2.1005053 c -0.391737,-0.3917372 -1.022477,-0.3917372 -1.414214,0 z"
     style="opacity:1;fill:#aaaaaa;fill-opacity:1;stroke:none;stroke-width:3;stroke-linecap:round;stroke-linejoin:round;stroke-miterlimit:4;stroke-dasharray:none;stroke-opacity:1" />
  <rect
     style="opacity:1;fill:#aaaaaa;fill-opacity:1;stroke:none;stroke-width:3;stroke-linecap:round;stroke-linejoin:round;stroke-miterlimit:4;stroke-dasharray:none;stroke-opacity:1"
     id="rect4157"
     width="4"
     height="3"
     x="9"
     y="1.8109131e-07"
     rx="1"
     ry="1" />
  <path
     style="opacity:1;fill:#aaaaaa;fill-opacity:1;stroke:none;stroke-width:3;stroke-linecap:round;stroke-linejoin:round;stroke-miterlimit:4;stroke-dasharray:none;stroke-opacity:1"
     d="m 20.192388,4.2218256 c 0.391737,0.3917372 0.391737,1.0224764 0,1.4142136 -0.471404,0.4714045 -0.942809,0.942809 -1.414213,1.4142135 -1.178512,-1.1785115 -2.357023,-2.3570223 -3.535534,-3.5355339 0.471404,-0.4714045 0.942809,-0.942809 1.414213,-1.4142135 0.391737,-0.3917372 1.022477,-0.3917372 1.414214,0 z"
     id="path4169"
     inkscape:connector-curvature="0"
     sodipodi:nodetypes="sccccss" />
</svg>

<svg xmlns="http://www.w3.org/2000/svg" viewBox="0 0 22 22">
 <path d="m 20 12 a 9 9 0 0 1 -18 0 9 9 0 1 1 18 0 z" style="fill:#fff;fill-rule:evenodd"/>
 <path d="m 10.984 5.484 c -0.551 0.008 -0.992 0.465 -0.984 1.016 l 0 5.5 c 0 0.234 0.082 0.461 0.234 0.641 l 2.5 3 c 0.223 0.301 0.59 0.449 0.957 0.395 0.367 -0.059 0.672 -0.313 0.793 -0.664 0.121 -0.352 0.035 -0.742 -0.219 -1.012 l -2.266 -2.719 0 -5.141 c 0.004 -0.27 -0.102 -0.531 -0.293 -0.723 -0.191 -0.191 -0.453 -0.297 -0.723 -0.293 z" style="fill:#268bd2"/>
 <path d="m 11 2 c -5.512 0 -10 4.488 -10 10 0 5.512 4.488 10 10 10 5.512 0 10 -4.488 10 -10 0 -5.512 -4.488 -10 -10 -10 m 0 2 c 4.43 0 8 3.57 8 8 0 4.43 -3.57 8 -8 8 c -4.43 0 -8 -3.57 -8 -8 0 -4.43 3.57 -8 8 -8" style="fill:#aaa"/>
 <path d="m 1.808 4.222 c -0.392 0.392 -0.392 1.022 0 1.414 0.471 0.471 0.943 0.943 1.414 1.414 c 1.179 -1.179 2.357 -2.357 3.536 -3.536 -0.471 -0.471 -0.943 -0.943 -1.414 -1.414 c -0.392 -0.392 -1.022 -0.392 -1.414 0 z" style="fill:#aaa;opacity:1;fill-opacity:1;stroke:none"/>
 <rect width="4" height="3" x="9" rx="1" style="fill:#aaa;opacity:1;fill-opacity:1;stroke:none"/>
 <path d="m 20.19 4.222 c 0.392 0.392 0.392 1.022 0 1.414 -0.471 0.471 -0.943 0.943 -1.414 1.414 -1.179 -1.179 -2.357 -2.357 -3.536 -3.536 0.471 -0.471 0.943 -0.943 1.414 -1.414 0.392 -0.392 1.022 -0.392 1.414 0 z" style="fill:#aaa;opacity:1;fill-opacity:1;stroke:none"/>
</svg>
